X: 2675
T: Bank Of Turf, The
R: jig
M: 6/8
K: Dmajor
A|:ABA D2A|BAF DFA|dAA eAA|~f3 def|~g3 gab
[1 a((3fed) Bcd|e3 e2d|cBA Bcd:|2 a((3fed) ~B3|A2e efe|d3 dcd||
e2e efg|f2f fga|gfe fed|edB A((3Bcd)|
e2e efg|f2f fga|gfe dcB|1 A3 Acd:|2 A3 AcB||

